symbols/web/arrow_downward/materialsymbolsrounded/arrow_downward_wght200gradN25_40px.svg

<svg xmlns="http://www.w3.org/2000/svg" height="40" width="40"><path d="M20 31.5q-.208 0-.438-.083-.229-.084-.395-.292L8.542 20.458q-.25-.208-.25-.458t.25-.458q.208-.209.479-.209t.479.167l9.833 9.875V8.708q0-.291.188-.479.187-.187.479-.187t.5.187q.208.188.208.479v20.667l9.834-9.875q.208-.167.458-.167t.458.209q.25.166.25.437t-.25.479L20.833 31.125q-.166.208-.375.292-.208.083-.458.083Z"/></svg>

<svg xmlns="http://www.w3.org/2000/svg" height="40" width="40"><path d="M20 31.5Q19.792 31.5 19.562 31.417Q19.333 31.333 19.167 31.125L8.542 20.458Q8.292 20.25 8.292 20Q8.292 19.75 8.542 19.542Q8.75 19.333 9.021 19.333Q9.292 19.333 9.5 19.5L19.333 29.375V8.708Q19.333 8.417 19.521 8.229Q19.708 8.042 20 8.042Q20.292 8.042 20.5 8.229Q20.708 8.417 20.708 8.708V29.375L30.542 19.5Q30.75 19.333 31 19.333Q31.25 19.333 31.458 19.542Q31.708 19.708 31.708 19.979Q31.708 20.25 31.458 20.458L20.833 31.125Q20.667 31.333 20.458 31.417Q20.25 31.5 20 31.5Z"/></svg>
